build/img/icons/check.svg

<svg width="36" height="30" viewBox="0 0 36 30" fill="none" xmlns="http://www.w3.org/2000/svg">
<path d="M12.3801 29.0293L12.3274 29.0247C10.9379 28.8849 10.0712 28.0113 9.30997 27.2432L9.28475 27.2157C7.38395 25.3011 5.44417 23.3613 3.5663 21.488C2.79131 20.713 2.01631 19.938 1.24132 19.1631C-0.409559 17.5122 -0.414145 15.3798 1.22985 13.7358L1.37889 13.5868C1.5692 13.3965 1.75951 13.2061 1.94982 13.0181C3.50898 11.4796 5.67575 11.4796 7.22115 13.0181C7.66597 13.4607 8.2369 14.0316 8.8491 14.6415C10.1308 15.9209 11.5845 17.3723 12.4512 18.2253C12.5131 18.2872 12.5842 18.2963 12.6301 18.2986C12.6782 18.2986 12.747 18.2849 12.8089 18.223C15.3334 15.6504 23.9684 6.94887 28.6802 2.23928C30.3701 0.54943 32.4704 0.547137 34.1579 2.2347L34.3964 2.47316C34.5959 2.67035 34.7931 2.86524 34.9857 3.06701C36.3133 4.45192 36.3408 6.56825 35.0499 7.99213C34.9582 8.09301 34.8596 8.19161 34.7633 8.28791L34.6945 8.3567L30.2027 12.8439C25.4358 17.6062 20.6689 22.3685 15.9043 27.1354L15.7598 27.2822C15.0536 27.9929 14.2557 28.7977 13.0038 29.0087L12.896 29.0202L12.3801 29.0293ZM4.58663 13.4675C4.06386 13.4675 3.54108 13.6991 3.07333 14.16C2.88531 14.3457 2.6973 14.5337 2.50928 14.7217L2.36024 14.8708C1.34679 15.8865 1.34908 17.0077 2.37171 18.0281C3.1467 18.8031 3.9217 19.5781 4.69669 20.3508C6.57456 22.2263 8.51663 24.1661 10.4197 26.083L10.4449 26.1105C11.0892 26.7594 11.6464 27.3211 12.4375 27.4197L12.7814 27.4083C13.4968 27.2707 14.015 26.7479 14.6157 26.1449L14.7647 25.9958C19.5293 21.2289 24.2962 16.4666 29.0632 11.7043L33.6283 7.14376C33.7062 7.0658 33.7842 6.99014 33.8576 6.90759C34.5752 6.11655 34.5615 4.9403 33.8232 4.17218C33.6397 3.98187 33.4517 3.79615 33.2637 3.60814L33.0184 3.36509C31.9545 2.30119 30.8745 2.30348 29.8083 3.36738C25.0988 8.07467 16.4683 16.7693 13.9485 19.3396C13.6 19.695 13.1345 19.8922 12.6392 19.8968C12.6347 19.8968 12.6278 19.8968 12.6232 19.8968C12.1325 19.8968 11.6716 19.7088 11.3208 19.3625C10.4518 18.5073 8.99585 17.0536 7.71183 15.7696C7.10193 15.1597 6.531 14.591 6.08618 14.1485C5.62531 13.6968 5.10712 13.4675 4.58663 13.4675Z" fill="#4DA82F"/>
</svg>

<svg width="36" height="30" fill="none" xmlns="http://www.w3.org/2000/svg"><path d="M12.38 29.03l-.053-.005c-1.39-.14-2.256-1.014-3.017-1.782l-.025-.027a1548.12 1548.12 0 00-5.719-5.728l-2.325-2.325c-1.65-1.65-1.655-3.783-.011-5.427l.149-.15.57-.568c1.56-1.538 3.727-1.538 5.272 0l1.628 1.623a921.112 921.112 0 003.602 3.584.258.258 0 00.18.074.248.248 0 00.178-.076A3609.88 3609.88 0 0128.68 2.239c1.69-1.69 3.79-1.692 5.478-.004l.238.238c.2.197.397.392.59.594a3.58 3.58 0 01.064 4.925c-.092.101-.19.2-.287.296l-.069.069-4.491 4.487c-4.767 4.762-9.534 9.525-14.299 14.291l-.144.147c-.706.71-1.504 1.516-2.756 1.727l-.108.011-.516.01zM4.587 13.466c-.523 0-1.046.232-1.514.693l-.564.562-.149.149c-1.013 1.015-1.01 2.137.012 3.157l2.325 2.323a1915.5 1915.5 0 015.723 5.732l.025.027c.644.65 1.201 1.211 1.992 1.31l.344-.012c.716-.137 1.234-.66 1.835-1.263l.149-.15c4.764-4.766 9.531-9.528 14.298-14.29l4.565-4.561c.078-.078.156-.154.23-.236a1.986 1.986 0 00-.035-2.736c-.183-.19-.371-.376-.56-.564l-.245-.243c-1.064-1.064-2.143-1.062-3.21.002a3476.3 3476.3 0 00-15.86 15.973 1.846 1.846 0 01-1.309.557h-.016a1.84 1.84 0 01-1.302-.534 774.5 774.5 0 01-3.61-3.593c-.61-.61-1.18-1.179-1.625-1.621-.46-.452-.979-.681-1.5-.681z" fill="#4DA82F"/></svg>
